X: 8453
T: Crags On Fire
R: reel
M: 4/4
K: Bminor
|:B3A Bd (3ddd|cA (3AAA fcec|B3A Bd (3ddd|caec dcBA|
d3A defd|eA (3AAA ABcA|GBdc- cAfc|B3B- B4:|
|:GBdc- cAec|GBde- e2f2|GBdc- cAde|f3f edcA|
[1 GBdc- cAec|GBde- e2f2|fede- edce|dB (3BBB cA (3AAA:|
[2 d3A defd|eA (3AAA ABcA|GBdc- cAfc|B3B- B4||

